X: 3199
T: ROWAN TREE
Q: "Highland Schottische."
R: Schottische.
%R: shottish
B: James Kerr "Merry Melodies" v.3 p.23 #199
Z: 2016 John Chambers <jc:trillian.mit.edu>
N: The 2nd strain has initial repeat but no final repeat; fixed.
M: C
L: 1/16
K: A
uA2 |\
c2cc3B (ce3) e3a | f3e (fa3) f4 e3A |\
c3cc3B (ce3) fa3 | ec3 B3c A4-A2 ::\
c2 |\
e3aa3g (gf3) f3a | e3fe3c c4 B3A |\
c3cc3B (ce3) (fa3) | (ec3) B3c A4-A2 :|

%%sep 1 1 500
%%sep 1 1 500

